svgs/thin/heading.svg

<svg xmlns="http://www.w3.org/2000/svg" viewBox="0 0 448 512"><!--! Font Awesome Pro 6.6.0 by @fontawesome - https://fontawesome.com License - https://fontawesome.com/license (Commercial License) Copyright 2024 Fonticons, Inc. --><path d="M0 40c0-4.4 3.6-8 8-8l64 0 64 0c4.4 0 8 3.6 8 8s-3.6 8-8 8L80 48l0 192 288 0 0-192-56 0c-4.4 0-8-3.6-8-8s3.6-8 8-8l64 0 64 0c4.4 0 8 3.6 8 8s-3.6 8-8 8l-56 0 0 200 0 216 56 0c4.4 0 8 3.6 8 8s-3.6 8-8 8l-64 0-64 0c-4.4 0-8-3.6-8-8s3.6-8 8-8l56 0 0-208L80 256l0 208 56 0c4.4 0 8 3.6 8 8s-3.6 8-8 8l-64 0L8 480c-4.4 0-8-3.6-8-8s3.6-8 8-8l56 0 0-216L64 48 8 48c-4.4 0-8-3.6-8-8z"/></svg>

<svg xmlns="http://www.w3.org/2000/svg" viewBox="0 0 448 512"><!--! Font Awesome Pro 6.4.2 by @fontawesome - https://fontawesome.com License - https://fontawesome.com/license (Commercial License) Copyright 2023 Fonticons, Inc. --><path d="M0 40c0-4.4 3.6-8 8-8H72h64c4.4 0 8 3.6 8 8s-3.6 8-8 8H80V240H368V48H312c-4.4 0-8-3.6-8-8s3.6-8 8-8h64 64c4.4 0 8 3.6 8 8s-3.6 8-8 8H384V248 464h56c4.4 0 8 3.6 8 8s-3.6 8-8 8H376 312c-4.4 0-8-3.6-8-8s3.6-8 8-8h56V256H80V464h56c4.4 0 8 3.6 8 8s-3.6 8-8 8H72 8c-4.4 0-8-3.6-8-8s3.6-8 8-8H64V248 48H8c-4.4 0-8-3.6-8-8z"/></svg>
